X:1
T: the Christmas Polka
M:2/4
L:1/8
Q:240
S:Jackie Daly
Z:Lorna <Muse1950:aol.COM>
R:Polka
D:Many's a Wild Night
K:G
G/A/ \
| BG DB, | CE (3EDC | B,D GA/B/ | cB AG/A/ |
| BG DB, | CE D>C | B,D GA/B/ | AG G>A |
| BG DB, | CE (3EDC | B,D GA/B/ | cB AG/A/ |
| BG DB, | CE D>C | B,D GA/B/ | AG G>A |
| Bd dG | cd ed | Bd G>A | BA AG/A/ |
| B/A/B/c/ dG | cd ed | Bd A/B/c/A/ |BG G>A |
| Bd dG | cd ed | Bd G>A | BA AG/A/ |
| B/A/B/c/ dG | cd ed | Bd A/B/c/A/ | BG G |]
